img/svg/icon-font/arr-prev.svg

<svg width="22" height="22" viewBox="0 0 22 22" fill="none" xmlns="http://www.w3.org/2000/svg">
<path fill-rule="evenodd" clip-rule="evenodd" d="M1.30299 12.2202C0.899002 11.8224 0.899002 11.1776 1.30299 10.7798L7.8864 4.2983C8.29039 3.90057 8.94539 3.90057 9.34938 4.2983C9.75337 4.69604 9.75337 5.3409 9.34938 5.73864L4.53195 10.4815H19.9655C20.5368 10.4815 21 10.9375 21 11.5C21 12.0625 20.5368 12.5185 19.9655 12.5185H4.53195L9.34938 17.2614C9.75337 17.6591 9.75337 18.304 9.34938 18.7017C8.94539 19.0994 8.29039 19.0994 7.8864 18.7017L1.30299 12.2202Z" fill="#4C51CC"/>
</svg>

<svg width="22" height="22" fill="none" xmlns="http://www.w3.org/2000/svg"><path fill-rule="evenodd" clip-rule="evenodd" d="M1.303 12.22a1.007 1.007 0 010-1.44l6.583-6.482a1.046 1.046 0 011.463 0 1.007 1.007 0 010 1.44l-4.817 4.744h15.433c.572 0 1.035.456 1.035 1.018 0 .563-.463 1.018-1.035 1.018H4.532l4.817 4.743a1.007 1.007 0 010 1.44 1.046 1.046 0 01-1.463 0l-6.583-6.48z" fill="#4C51CC"/></svg>
